X: 39095
T: Sweeney's Dream
R: reel
M: 4/4
K: Dmajor
dF (3FFF ABde|(3fga eg fdBc|dF (3FFF ABdB|AFdF ~E2D2:|
fa~a2 afdf|gfed cdeg|fa~a2 afaf|gfeg fdde|
fa~a2 b~f3|gfeg fdBc|dF (3FFF ABdf|(3fga eg ~f3e||
P:1st bar of 1st part is played this way on each repeat
d2FB ABde|

